X:1
T:Doers of the Word
T:Doers of the Word
T:James McGranahan
T:Daniel Webster Whittle, 1880
T:Public Domain Courtesy of the Cyber Hymnal™
T:Public Domain Courtesy of the Cyber Hymnal™
C:James McGranahan
Z:Public Domain
Z:Courtesy of the Cyber Hymnal™
%%score ( 1 2 ) ( 3 4 )
L:1/8
Q:1/4=97
M:3/4
K:F
V:1 treble 
V:2 treble 
V:3 bass 
V:4 bass 
V:1
 C2 | [CF]>[CF] [CF]2 [CG]2 | [CA]>[CA] [CA]2 [EB]2 | [Fc]3 [FA] [CF][FA] | [FA]2 [EG]2 C2 | %5
w: 1.~Once|more we come, God’s|word to hear, The|word so pure and|ho- ly; Now|
w: 2.~The|life of God is|in the word; And|who- so- e’er be-|liev- eth The|
w: 3.~The|word of God, by|faith re- ceived, Im-|parts re- gen- er-|a- tion; And|
w: 4.~So|when the word of|God we hear, Let|us be hum- bly|plead- ing The|
 [CF]>[CF] [CF]2 [CG]2 | [CA]>[CA] [CA]2 [EB]2 | [Fc]3 [FA] [CF][CA] | [CG]2 [CF]2 ([FA][GB]) | %9
w: grant us, Lord, a|listen- ing ear, A|spir- it meek and|low- ly; For *|
w: re- cord there of|Christ the Lord E-|ter- nal life re-|ceiv- eth; But *|
w: he who hath in|Christ be- lieved, Lives|out a new cre-|a- tion; But *|
w: Ho- ly Ghost to|give us light, As|we the word are|heed- ing; But *|
 [Ac]>[Bd] [Ac]2 ([FA][GB]) | [Ac]>[Bd] [Ac]2 ||"^Refrain" (3([FA][GB][Ac]) | [Bd]3 [Ac] [GB][FA] | %13
w: if we hear, and *|heed it not,|||
w: if we hear, be- *|liev- ing not,|||
w: if we hear, and *|do it not,|We * *|hear for con- dem-|
w: if we hear, and *|feel it not,|||
 [FA]2 [EG]2 C2 | [CF]>[CF] [CF]2 [CG]2 | [CA]>[CA] [CA]2 [EB]2 | [Fc]3 [FA] [CF][CA] | %17
w: ||||
w: ||||
w: na- tion; For|“do- ers of the|word,” we’re taught, Are|heirs of Christ’s sal-|
w: ||||
 [CG]2 [CF]2 |] %18
w: |
w: |
w: va- tion.|
w: |
V:2
 C2 | x6 | x6 | x6 | x4 C2 | x6 | x6 | x6 | x6 | x6 | x4 || x2 | x6 | x4 C2 | x6 | x6 | x6 | x4 |] %18
V:3
 C,2 | [A,,F,]>[A,,F,] [A,,F,]2 [C,E,]2 | F,>F, F,2 [G,C]2 | [A,C]3 [F,C] [F,A,][F,C] | %4
 [C,C]2 (CB,) ([C,A,][B,,G,]) | [A,,F,]>[A,,F,] [A,,F,]2 [C,E,]2 | F,>F, F,2 [G,C]2 | %7
 [A,C]3 [F,C] [F,A,][F,C] | [C,B,]2 [F,A,]2 F,2 | F,>F, F,2 F,2 | F,>F, F,2 || F,2 | %12
 [B,,F,]3 [C,F,] [D,G,][F,C] | [C,C]2 (CB,) ([D,A,][C,G,]) | [A,,F,]>[A,,F,] [A,,F,]2 [C,E,]2 | %15
 F,>F, F,2 [G,C]2 | [A,C]3 [F,C] [F,A,][F,C] | [C,B,]2 [F,A,]2 |] %18
V:4
 C,2 | x6 | F,>F, F,2 x2 | x6 | x2 C,2 x2 | x6 | F,>F, F,2 x2 | x6 | x4 F,2 | F,>F, F,2 F,2 | %10
 F,>F, F,2 || F,2 | x6 | x2 C,2 x2 | x6 | F,>F, F,2 x2 | x6 | x4 |] %18

